X:1
T:5. Ronde
T:5. Ronde
T:Wo bistu
T:Tielman Susato
C:Tielman Susato
%%score 1 2 3 4
L:1/8
M:4/2
K:F
V:1 treble 
V:2 treble 
V:3 treble 
V:4 treble 
V:1
 F4 F2 F2 G4 G4 | A4 A4 F4 c4 | c4 c4 B8 | A8 A8 | A4 A2 A2 B6 A2 | G4 F4 E4 A4 | G4 F8 E4 | %7
 F8 F8 | A4 A2 A2 B6 A2 | G4 F4 E4 A4 | G4 F8 E4 | F8 F8 :: A4 A2 A2 G4 F4 | F4 E4 F8 | %14
 A4 A2 A2 G4 F4 | F4 E4 F8 :| %16
V:2
 C4 C2 C2 E4 D4 | F4 F4 F4 E4 | F4 E2 F2 G4 D2 E2 | F8 F8 | F4 F2 F2 F6 E2 | D4 D4 C6 F,2 | %6
 G,4 C4 C8 | A,8 A,8 | F4 F2 F2 F6 E2 | D4 D4 C6 F,2 | G,4 C4 C8 | A,8 A,8 :: F4 F2 F2 D4 B,4 | %13
 C8 A,8 | F4 F2 F2 D4 B,4 | C8 A,8 :| %16
V:3
 A,4 A,2 A,2 C4 B,4 | C4 C4 D4 C4 | A,4 F,4 B,6 C2 | D8 C8 | C4 C2 C2 D6 C2 | B,6 A,2 G,4 C4 | %6
 B,4 A,4 G,8 | F,8 F,8 | C4 C2 C2 D6 C2 | B,6 A,2 G,4 C4 | B,4 A,4 G,8 | F,8 F,8 :: %12
 C4 C2 C2 B,2 A,2 G,2 F,2 | G,8 F,8 | C4 C2 C2 B,2 A,2 G,2 F,2 | G,8 F,8 :| %16
V:4
 F,4 F,2 F,2 C,4 G,4 | F,4 F,4 B,,4 C,4 | F,4 A,4 G,8 | D,6 E,2 F,8 | F,4 F,2 F,2 B,,6 B,,2 | %5
 B,,4 B,,4 C,6 D,2 | _E,4 F,4 C,8 | F,,8 F,,8 | F,4 F,2 F,2 B,,6 B,,2 | B,,4 B,,4 C,6 D,2 | %10
 _E,4 F,4 C,8 | F,,8 F,,8 :: F,4 F,2 F,2 B,,4 D,4 | C,4 C,4 F,,8 | F,4 F,2 F,2 B,,4 D,4 | %15
 C,8 F,,8 :| %16

